!! 00000] TT[WS
!!!OTL: Tan qinglang
!!!ARE: Asia, China, Shanxi Yuanping
!! Ethnic Group: Han
!! WII, 65 (2)
!!!SCT: J0494
!!!YEM: Copyright 1995, estate of Helmut Schaffrath.
**kern
*ICvox
*Ivox
*M2/4
*k[b-]
*F:
{4dd
8ff
8dd
=1
8cc
8dd
8cc
8a
=2
8cc
8a
8g
8f
=3
2g
=4
8cc
8a
8g
8f
=5
4g
4r}
=6
{8a
8cc
4dd
=7
8dd
8cc
4a
=8
8cc
8e
8g
8a
=9
2d}
=10
{8.g
16a
8g
8f
=11
8.g
16a
8g
8f
=12
8d
8d
8f
8d
=13
2c}
==
!!!AGN: Xiaodiao. Qingge, Sichun
!!!ONB: ESAC (Essen Associative Code) Database: CHINA
!!!AMT: simple duple
!!!AIN: vox
!!!EED: Helmut Schaffrath
!!!EEV: 1.0
*-
